src/components/assets/team/A1.svg

<svg width="45" height="53" viewBox="0 0 45 53" fill="none" xmlns="http://www.w3.org/2000/svg">
<path fill-rule="evenodd" clip-rule="evenodd" d="M22.4333 50.8782L43.8084 38.2331V6.94255L22.4333 1.11914L1.05823 6.94255V38.2331L22.4333 50.8782Z" fill="black" stroke="#282828" stroke-width="2"/>
<path fill-rule="evenodd" clip-rule="evenodd" d="M33.563 37.0511L24.3852 10.1755H20.7465L11.5687 37.0511H15.4911L19.8136 23.9214L22.5659 15.3002L26.311 27.0296L26.4137 27.3418H20.6392L27.8749 31.7749L29.6815 37.0511H33.563Z" fill="url(#paint0_radial)"/>
<defs>
<radialGradient id="paint0_radial" cx="0" cy="0" r="1" gradientUnits="userSpaceOnUse" gradientTransform="translate(22.5659 37.0511) rotate(-90) scale(28.3218 23.1779)">
<stop stop-color="#EF698C"/>
<stop offset="1" stop-color="#F9886D"/>
</radialGradient>
</defs>
</svg>

<svg width="45" height="53" fill="none" xmlns="http://www.w3.org/2000/svg"><path fill-rule="evenodd" clip-rule="evenodd" d="M22.433 50.878l21.375-12.645V6.943L22.433 1.119 1.058 6.943v31.29l21.375 12.645z" fill="#000" stroke="#282828" stroke-width="2"/><path fill-rule="evenodd" clip-rule="evenodd" d="M33.563 37.051l-9.178-26.876h-3.639L11.57 37.052h3.922l4.323-13.13 2.752-8.62L26.31 27.03l.103.312h-5.775l7.236 4.433 1.806 5.276h3.882z" fill="url(#paint0_radial)"/><defs><radialGradient id="paint0_radial" cx="0" cy="0" r="1" gradientUnits="userSpaceOnUse" gradientTransform="matrix(0 -28.3218 23.1779 0 22.566 37.051)"><stop stop-color="#EF698C"/><stop offset="1" stop-color="#F9886D"/></radialGradient></defs></svg>
